assets/icons/chevron-up.svg

<svg width="24" height="25" viewBox="0 0 24 25" fill="none" xmlns="http://www.w3.org/2000/svg">
<path d="M3.75797 17.3542C3.37852 17.6024 2.86334 17.5592 2.53157 17.2247C2.19985 16.8902 2.16221 16.3757 2.4135 15.9983L2.53728 15.8441L9.76239 8.6799C10.9186 7.53308 12.7562 7.46122 13.9977 8.46471L14.2376 8.6799L21.4627 15.8441L21.5865 15.9983C21.8378 16.3757 21.8002 16.8902 21.4684 17.2247C21.1367 17.5592 20.6215 17.6024 20.242 17.3542L20.0878 17.2304L12.8646 10.0644L12.6741 9.91011C12.2009 9.602 11.5494 9.65374 11.1354 10.0644L3.91223 17.2304L3.75797 17.3542Z" fill="#111111"/>
</svg>

<svg xmlns="http://www.w3.org/2000/svg" width="24" height="25" fill="none" viewBox="0 0 24 25"><path fill="#111" d="M3.758 17.354a.975.975 0 0 1-1.344-1.356l.123-.154L9.762 8.68a3.19 3.19 0 0 1 4.236-.215l.24.215 7.225 7.164.123.154a.975.975 0 0 1-1.344 1.356l-.154-.124-7.223-7.166-.19-.154a1.24 1.24 0 0 0-1.54.154L3.912 17.23z"/></svg>
